img/tab-icons/Frame-active.svg

<svg width="24" height="24" viewBox="0 0 24 24" fill="none" xmlns="http://www.w3.org/2000/svg">
<g clip-path="url(#clip0_1_5802)">
<path d="M12 4.78998C12.64 4.78998 13.15 5.30998 13.15 5.93998C13.15 6.56998 12.63 7.08998 12 7.08998C11.37 7.08998 10.85 6.56998 10.85 5.93998C10.85 5.30998 11.37 4.78998 12 4.78998ZM12 3.47998C10.64 3.47998 9.54004 4.58998 9.54004 5.93998C9.54004 7.28998 10.65 8.39998 12 8.39998C13.35 8.39998 14.46 7.28998 14.46 5.93998C14.46 4.58998 13.35 3.47998 12 3.47998Z" fill="#41FFB4"/>
<path d="M8.09999 9.38995C8.15999 9.38995 8.21998 9.38995 8.27998 9.40995L10.64 10.0399C11.09 10.1599 11.54 10.2199 12 10.2199C12.46 10.2199 12.92 10.1599 13.37 10.0399L15.72 9.40995C15.78 9.39995 15.84 9.38995 15.89 9.38995C16.19 9.38995 16.45 9.57995 16.53 9.87995C16.62 10.2299 16.42 10.5899 16.06 10.6899L13.82 11.2899C13.65 11.3399 13.54 11.5099 13.58 11.6799L13.77 12.4999L13.81 12.6499L15.3 18.2299C15.32 18.2899 15.33 18.3499 15.33 18.4099C15.33 18.6999 15.13 18.9599 14.84 19.0399C14.78 19.0499 14.72 19.0599 14.67 19.0599C14.38 19.0599 14.11 18.8699 14.03 18.5699L12.78 13.9299C12.69 13.5799 12.36 13.3299 12 13.3299C11.64 13.3299 11.31 13.5799 11.22 13.9299L9.96999 18.5699C9.88999 18.8699 9.62999 19.0599 9.32999 19.0599C9.26999 19.0599 9.21999 19.0599 9.15999 19.0399C8.85999 18.9599 8.66999 18.6899 8.66999 18.3999C8.66999 18.3399 8.66998 18.2899 8.68998 18.2299L9.99999 13.3399V13.2799L10.39 11.6699C10.43 11.4999 10.33 11.3199 10.15 11.2799L7.90999 10.6799C7.60999 10.5999 7.41999 10.3299 7.41999 10.0399C7.41999 9.97995 7.41999 9.92995 7.43999 9.86995C7.51999 9.57995 7.77998 9.37995 8.06998 9.37995M8.06998 8.06995C7.17998 8.06995 6.38999 8.66995 6.16999 9.52995V9.54995L6.15999 9.57995C6.12999 9.72995 6.10999 9.87995 6.10999 10.0399C6.10999 10.9299 6.70999 11.7199 7.56999 11.9499L8.88999 12.2999L8.72998 12.9799V13.0199L7.40999 17.8799V17.9099L7.39999 17.9399C7.36999 18.0899 7.34999 18.2399 7.34999 18.3999C7.34999 19.2899 7.94999 20.0799 8.80999 20.3099C8.97999 20.3499 9.14998 20.3799 9.31998 20.3799C10.22 20.3799 11 19.7699 11.23 18.9099L11.99 16.0999L12.75 18.9199C12.99 19.7899 13.77 20.3799 14.66 20.3799C14.83 20.3799 15 20.3599 15.16 20.3199C16.03 20.0799 16.63 19.2999 16.63 18.4199C16.63 18.2299 16.6 18.0499 16.55 17.8799L15.07 12.3199L16.39 11.9599C16.89 11.8299 17.32 11.5099 17.59 11.0499C17.86 10.5899 17.93 10.0599 17.79 9.54995C17.56 8.68995 16.77 8.07995 15.88 8.07995C15.73 8.07995 15.58 8.09995 15.42 8.12995H15.39L15.36 8.13995L13.01 8.76995C12.67 8.85995 12.32 8.90995 11.98 8.90995C11.64 8.90995 11.29 8.86995 10.96 8.77995L8.60998 8.14995C8.44998 8.09995 8.26999 8.07995 8.08999 8.07995L8.06998 8.06995Z" fill="#41FFB4"/>
<path d="M20 1.5C21.38 1.5 22.5 2.62 22.5 4V20C22.5 21.38 21.38 22.5 20 22.5H4C2.62 22.5 1.5 21.38 1.5 20V4C1.5 2.62 2.62 1.5 4 1.5H20ZM20 0H4C1.79 0 0 1.79 0 4V20C0 22.21 1.79 24 4 24H20C22.21 24 24 22.21 24 20V4C24 1.79 22.21 0 20 0Z" fill="#41FFB4"/>
</g>
<defs>
<clipPath id="clip0_1_5802">
<rect width="24" height="24" fill="white"/>
</clipPath>
</defs>
</svg>

<svg width="24" height="24" fill="none" xmlns="http://www.w3.org/2000/svg"><g clip-path="url(#a)" fill="#41FFB4"><path d="M12 4.79c.64 0 1.15.52 1.15 1.15 0 .63-.52 1.15-1.15 1.15-.63 0-1.15-.52-1.15-1.15 0-.63.52-1.15 1.15-1.15zm0-1.31c-1.36 0-2.46 1.11-2.46 2.46 0 1.35 1.11 2.46 2.46 2.46 1.35 0 2.46-1.11 2.46-2.46 0-1.35-1.11-2.46-2.46-2.46z"/><path d="M8.1 9.39c.06 0 .12 0 .18.02l2.36.63a5.238 5.238 0 0 0 2.73 0l2.35-.63c.06-.01.12-.02.17-.02.3 0 .56.19.64.49.09.35-.11.71-.47.81l-2.24.6c-.17.05-.28.22-.24.39l.19.82.04.15 1.49 5.58c.02.06.03.12.03.18 0 .29-.2.55-.49.63-.06.01-.12.02-.17.02a.66.66 0 0 1-.64-.49l-1.25-4.64a.813.813 0 0 0-.78-.6c-.36 0-.69.25-.78.6l-1.25 4.64c-.08.3-.34.49-.64.49-.06 0-.11 0-.17-.02a.66.66 0 0 1-.49-.64c0-.06 0-.11.02-.17L10 13.34v-.06l.39-1.61a.321.321 0 0 0-.24-.39l-2.24-.6a.66.66 0 0 1-.49-.64c0-.06 0-.11.02-.17a.66.66 0 0 1 .63-.49m0-1.31c-.89 0-1.68.6-1.9 1.46v.02l-.01.03c-.03.15-.05.3-.05.46 0 .89.6 1.68 1.46 1.91l1.32.35-.16.68v.04l-1.32 4.86v.03l-.01.03c-.03.15-.05.3-.05.46a1.98 1.98 0 0 0 1.97 1.98c.9 0 1.68-.61 1.91-1.47l.76-2.81.76 2.82c.24.87 1.02 1.46 1.91 1.46.17 0 .34-.02.5-.06.87-.24 1.47-1.02 1.47-1.9 0-.19-.03-.37-.08-.54l-1.48-5.56 1.32-.36c.5-.13.93-.45 1.2-.91.27-.46.34-.99.2-1.5a1.99 1.99 0 0 0-2.37-1.42h-.03l-.03.01-2.35.63c-.34.09-.69.14-1.03.14-.34 0-.69-.04-1.02-.13l-2.35-.63c-.16-.05-.34-.07-.52-.07l-.02-.01z"/><path d="M20 1.5A2.5 2.5 0 0 1 22.5 4v16a2.5 2.5 0 0 1-2.5 2.5H4A2.5 2.5 0 0 1 1.5 20V4A2.5 2.5 0 0 1 4 1.5h16zM20 0H4C1.79 0 0 1.79 0 4v16c0 2.21 1.79 4 4 4h16c2.21 0 4-1.79 4-4V4c0-2.21-1.79-4-4-4z"/></g><defs><clipPath id="a"><path fill="#fff" d="M0 0h24v24H0z"/></clipPath></defs></svg>
